-----BEGIN PGP PUBLIC KEY BLOCK-----

mQGNBFgPgoUBDADkZO5RNW+obJ/NErtJgI9t63MsIt1TKlreTD/W5HiAd7QIBVR/
qJfXFYNlBl/omSkaCvuuZTVI9Uulis3WqDi4r5n1I52nC7/pv3sRv+saSaKMmuen
+ObBw+wixbkHyL/BqgYh4OLi90Y3RVybFp6jRMbnROcP9CcFbjQpwv5wMkUGbmLC
gxvPosB7W3rNmlRC9B+YqoA/imK9RQI22VZtUXZioqW22iQORd9NUh2oPW3U7bRM
jte4zVkYu7ittbeJAO0b50TaQ1RlJC4nhLIS7wKii7CMjgGKpRzJK3siikj9PzvT
pyeb9PSQO0i2tyfDAZr4XMGiYbL3bp8zd9gDd4B/t1j5A1MHORwH2dFajWhtNsuH
86BXGKUgAr+MEsFeK6Rlio+H72nu4nnbjpJfw3/Z5I61HzoNVnwAEGka0MlZJNxp
4tKETZZPvHon7oSZvvhAYcaoTWbg/JXPSwxB9KPk110gwhfGhzLdm52KSyne2hYQ
3Vyd+/7pJwp0xG0AEQEAAbQlTWFyYyBSLiBTY2hvb2xkZXJtYW4gPHBncEBzcXVl
bGwubmV0PokB1gQTAQgAQAIbDwIeAQIXgAUJCW4wqQcLBwoDAQQCBBUKCAMDFgAB
FiEEDjfjmgYWOgipbPhS8pAXbAVQ64AFAlksDtACGQEACgkQ8pAXbAVQ64Ce9gwA
i4NidrkrhHJVh+h8HQ8QdGIGSLJT/59Q43iYxvJWWBeine+mmxeT+ifajdFdLlAN
bO+7dXMTopPmFhIQg3w+uYNKdf6gNA6P8nGJfPPTVBw610IrIZ8j8QchFLSOpX+W
6BbPAOwG3580Ugr7BN7fj0W4joDkUPF/73/C/fy2J92lBY9rs5iKPQvn7aZaRxbZ
pZAehTqJVnMvXIOPV0DYB/j1s34zVDYt5IsPCgcWcBTRSpF9gDvucCV36flLtDS6
eNOaTk4QWsYvBDfgGtLiz/u+P0n12WW7rt9NQkxjG1vGFFNonGAg1i3ZpOlezB2A
hjjfABdaG6PM6OJu0XaEXrhGGhSSby1OP64Qe70VCcLozp2spt6nN/PWil3qHoI1
En9u1U1xfR2FhMTmRUc45axdzm/23vivNbbCY/FcNTL8rDDRZmr8Lec3ErC7DPDq
sOEcQ0MRv6IaTw9qbS1oE+ViP6k0NU0xOW97gYdASkfMOcV3CwwABIdvwhEokWaE
iQIgBBABCAAKBQJYGNsfAwUBeAAKCRCRXU7TSHHoL+HtD/904EAVqjlsdIxEyC7i
T8Zjyia019Ts5XazO8NoZSOcRtlIQA3uJ1M5EJ1LwIuUnGJ4Jap7P/2AUKJSn6AG
LkWptgjDxNind3df3BXvvd7wNa0lyyCTrSkGO1jwWymGvQixsE5RBovLsyBiBlje
bYwVFamgBFRUZXedMSIFFdfB5iyzXO3b5B03w5z8CbU3UIGjocdeIbW155gC1BBd
Kj1Cj67mvrjw67WWbaxcg2DaAshqz5FnR4GMOswCzU2wuiy/tDsbYRSeIGsmAvhm
q8xOoclPpnieJbdQmHxMKouo7RKRot5IsRFAfflnqSp9n8fxM6/s36vh1G9rpSwW
pHNcsIembiVhZTM57Ey2R69CRTMH3JVtfhpzYk4uIMNXfLlG4Lpq5gMecyRJ0kAh
BGgynSOC0uOuQ4p85E3GpZSLWRvjayh2oCucZQzJKn0n69f2RZ9xwCGoEmZZcf9E
u+pYNRJYUoq3m2hqH7yQnBnj3B86e06Hjrgbx5z0EW/iGHQOIzDZZOK+uQm7aokP
U3wrQECayTxUq8Tv/FDPZ9eUiKX0Wg9lZ+KmBpaHzHik+ybQr/GvbFnjgrQ/l9B0
ITNgHf1cfpLJfFfABKz5YOI/L4FGM3xxYurs9JsJnticznz4cdqQm923mpCD1A0T
KpprN4y6dsUr51mjZSd1PLsrCIkCHAQTAQoABgUCWCXpMQAKCRDBJXwQ3HnZY/Yo
D/9m1zfJPhQED3l2m0tObBtIMXfborsrYylErB0+q4mKA/uTreKBzYMW/75/1nYA
UH6sD9BQ5z50YaSsXORAqAswZ9pOew6Uk6hKpHp1mLmxsf3ELJfa4fa0VWbmOxu+
nMBlD7lrXQHXM1/78coTfF/firbApji5NbRSoZfzRx8g/3yUcFailCKbCUcjBPAz
4XyL0M2i8Ot955lsRvXCU3HSDQyFrtORhSSQRuxArYE9gZ4sc+HnSeWLPgdzDWSc
zeVyOrNqr9tvcPD1BOY+pt0/YvmfBGIw3wkGkPxcdSs+pm4aEaAd4whrwilu+5ub
NLBgm7eeygyAM09NDn8umxHqIoKdcqpVi22PilCE1h4LKgxNUzdEzfnchKKw2X/L
LC+JoxwTIJ7LdPNlALUjeeXJuXrEvC++kpfxXh9j50+JcWXDI7n4N/WBuHKUO6u2
ud13QCjTVHPT4lTXOwhBbdpeGED7Cx4iMMz3zQodQ2puHTKy3oYWVqweRR3aBo9t
76XsLFvSCIfZb/nks7kHtYJiqzVqwre2jAOO0q05F8C32fFn9hz4ctsv/TY3auHJ
zZWdjAiJyjSzwc/HBfFakBodJvm/dDtO2I/chw7+wgvQXSLi2PSrKOhxoI/5b869
2kZNTlA8SYRMn3HGNY8GZyDLxHWBDAtrR0ieov+n8tqBcokCMwQSAQgAHRYhBKW4
Id5cVtKImCOPn/wO67ir0KjmBQJZP6xrAAoJEPwO67ir0KjmiKMP/RSNh8VpzTjm
DYaJzSIYTQl7S9qMzFbW3iUNjLcpTuoKNW+0qMwjW/CUmYGNxISdp8RTPvtVrB16
rGbsEFPwPRnGY3140bNhyqFdhRcItX3SIXvJpOq7c03z2DhKGlLrQ10XQYAyAStZ
n+/hXuzQxJy492RW3EhYxAcx79L+nc3fqDSUtNFiy/anwUN1u+dTRfxGwDD3aJew
n0nQwcFQjGKWCuLojbCTmNu7yTnDUq2uH133VE3mXJB9lGg6ju0pb5u2D4tc06WK
VTzzJonABkZuHghdLiZzcSi68hYD2v157tcmP/z515RHHmAvMO1wYU5x3imJoeyg
EFZu1V+Y+zefjF4OkUXNArspyKcNgIPh8eFnRJK8xO6GfLy9hJiXtSaJ8+GVYtgG
V6RUyfPvrjS9eB0KIzyks2JQyKHAsbibqPBN1BLfzypr9rL0DRN1uLXsg/IUfE7b
ioiJRir9PutgpiCbZdrO44Pu/LhaU4GeX85GCl78FplQax6UeO/acr4Vb2jJFras
cuja15TerHY3hkaqopICiI3By7sRXLlxuthGGM784GPq704aMsPj42Xe1O5pVy7J
0Hk+GqWKHbEVLJd/792Zbiv6LDeseHh+wOGS66VKNt1clyOmCdjy1TBXhJ62ofzn
tjFdoxuerZN+hPFx4OT1No+PgyFKxUyEiQG8BBMBCAAmAhsPAh4BAheABQkJbjCp
BQJYF7HfBwsHCgMBBAIEFQoIAwMWAAEACgkQ8pAXbAVQ64CKbwwA4K2Tv70ogPUG
A1q9qNta+GHflk0yX2qjlxD2+m83jOAvEqpP+GwGLhFoEcXHXqXbKKyqdWlz/fqr
NK2YAxMTnKJUyWZLg6y/r7eOywEtQ7yp5b/2Y/ZJPvZO1pyolCWq+hex7hBGGYer
MrJ6sv2doj1nfb5ZIe60tdzC7/RDxVvJRHqGyJjjhJdl0vGrAAaiRPX0ZV5q9r3x
KxItURTatMtRFfVm6kVJAkZhpaiVS5JnDhn65MgzLokVZrlA2Vr5WWEfEgRa8mhp
QFdHW8+7ypzF+0D9tSh5PNPeH8WH0FfPEFziO7Q+7wj0Ncut1CEP+flyOv/ZHQkR
+7dIBMYC3v7Xh8D6Fn5znDQhmYXSjUnMOC4vw80iwsHOA0b0xGYsu0JotfG/ugpS
uM5nR92WGOIIhJZ+pN8q4Tjn5gRcJgugFIArdSGLpGRw+WNiTDbJKtPPmPUGo9Ou
R4pdvr1ln4M8nZw78tbSUv7PmC0ojGPbsd3eE/QAGcBvpZsNVFjPiQHXBBMBCABB
AhsPAh4BAheAAhkBBwsKBwQDAQIGFQoJCAsDAhYAFiEEDjfjmgYWOgipbPhS8pAX
bAVQ64AFAmRCO1YFCQ6b2hsACgkQ8pAXbAVQ64C8RAv/Z2eLzluGXxI0DTnCckpL
ZsP/itgeTMiq++iZaMhMfWfIgNU6Ua2cHiBJQnX1RqzE7d2kk9S78IgRqOVAkjpP
B9SKqpNr/kmCFf0EA/LTqJJmSMj1k4JFvnt9YvpMTKMPzH9jDlsy+Cjsp+rsunLT
aVDrdGqH/zq10qFtbyEe0Hs6cEhN3QGO37LFYTbOlcR8+FiMxjqRAPxf6C7MeM+S
0IF/T7VX6AKKTnNlDA7snOayy3HhBEuacCFXkrIJ++bTQixZA5Zjr2HJRnPwlT7C
DfyUSQmTVSMg1L1aZMBwr1q3GG5kziLY0jz2kB1PiTpP55eX6RPo/4MXq/Vd7W7D
NDT1cZq2JGC7OPWhrRPy1QbzNeju73XMlXMK3kSVzvbeiIbdBj8KYNQ+aGg07HL5
nygPnQFTSkGnVpMZg2TWQsGv/ZxXROkmSdQqMRFTdBvfo9BofR7yT4/HUiY8Mq+C
V0VqfRd4VP/IuwlQs+R5kzxcet1JuXM9gdfzfHQqHGMKiQHXBBMBCABBAhsPAh4B
AheAAhkBBwsKBwQDAQIGFQoJCAsDAhYAFiEEDjfjmgYWOgipbPhS8pAXbAVQ64AF
AmmrZ4wFCRUJODMACgkQ8pAXbAVQ64DvMQwA1ztDTVMuxRcXZI3fERXQEf7SCOLG
mZ3GMBMZtaoYAo0HHGeimNXyVjcCvdwJBEz2464nps+g7HcqhdexXCkSV/NcWkFc
rj/7goe5/lSzKk/1D3SmcTusJqKky0rqHUqww++ijpitUlgpKjvmB5jMov530Fjy
cJ15O+NVAGSmrTAT0Wj4JQmXsQFKO/FGIPTmM2z/t3pD0Qc22ROqtXDP6g5RWtqw
BMhmMurDdL1OI3+U0e8wr8P73/ocIzKcIJzpNXfvuVAGwMb7QssWr6W8vWS4F/5t
c8Yvr56stKi2jgQDvPDA/9nEtiVLW1R9lxMbGsmIbk3/8j3X1H52AQmUnUUHnzxY
gxPS3Vzj1V7cwYXaerQUng2h1aOeSrFEosiN8ZIxRFviphwtOVbrqTiQ3cLM5jay
8SdOcJhaAR6nbTS1HoRUnXveK9BaxvXVU7BL5MC9j9jEXp78mG5m2IfwbS/4AYvj
ksguiqMOpdWVpbvwm4BCYjZGoUGEbw4lxKpNtCtNYXJjIFNjaG9vbGRlcm1hbiA8
bS5zY2hvb2xkZXJtYW5AY3MucnUubmw+iQHUBBMBCAA+AhsPBQkJbjCpBQsJCAcC
BhUICQoLAgQWAgMBAh4BAheAFiEEDjfjmgYWOgipbPhS8pAXbAVQ64AFAlksDs4A
CgkQ8pAXbAVQ64D8EgwAwLUDzjFi7Q/PnPs1juDoYr0TfF1n9ypDZOHRnRr6aiY2
Wi9Wo0Bi8YuNm1+0VF+K9iPHTPuyY3T1d0Rt1PPkqxf51VGVzsQ9noNCvmBUx4gP
760UDdneqlSnb9TjlV3CUBe7USy16ImcWMO9Xzhs9h+r6YnV+G66rumhRPNlv+oP
uG91zE4kK5Ex3bgQ7YWfBIK/BFrZeMcOTElUrIDZOC5JPQPi90d3tqrAkRIsmYQO
6rKT+i9EG/klTdkNUMpug69M6GkNaIcU+B5Y5Bu+3APny5DfWvFOtqD9BXDJcwhi
jZ5THnZJ9MFcHQqJxEx4mEfjDtmMit9d9kUpG2ZiBfnni1bguzDdMrrb8B1a0K8H
n0gBq4O/SWXVo2riGToitUaLCAJr0THjeMj7u9xx6BXSwUNdcaYpS/XEgAcgTKf9
rw+HM5dI/cpsSjfyD/6kukXJ8KHSxefNTX5j7USGfXPepUIiUK4Po1UGw2HeqJJz
PT4nGr16UeWaB7Dn9LseiQIzBBIBCAAdFiEEpbgh3lxW0oiYI4+f/A7ruKvQqOYF
Alk/rGsACgkQ/A7ruKvQqOZVaA//YNo47w9OZq79b8739+0mcxmMAOPh6+2Sf9Gb
33+qX6v0zpr1Add+vNTZkzfrE1m8tlEBypDGKtRMh29A/Ca00wg/n6WcS5LcbkzI
ZqXUKxJdlW/ir6wPJZWFW6XR3rMbKxqzZ0FIrhof+iOAin1H1Qujhr/aYguB4G1l
EClNft4fxbmYUkD1LAlP1b7+7fjCJu9MR5bomlZnyYTKDdrdnlN8m8cZqXxMdYoW
aDZ99Z10ZpsaHvKPMsOUlRRQD17wKsvh9iHgRM9CP4l8aZCBAbT4DXubTwXP7BZ6
r5uYUkQ3mLjAIby05yQHfmK1ptmK8rNnCdJPFBVluJ6q9WATz1Tw98JShkRpErhH
/SUV/oqykbuI2apFH0iaBcmK0gl0dPsZ2tXCjzi9k35hWG0mCtCGP4eTI1bwk2kC
lrLanQS/CFvZhKHtzIg92jcrZ1Bmcsad0Dj11VLBZHCPsF6NlVVVurJtuYZfijoc
Z6iqgKnie8FQfVIrIQIEuGGQ7cpCnq+84nlEcAtck288MeJHqEm7zXbWjiiO5WdD
qEBXsDOJU2HdN8STVTaxfBQShBB9GV10XNcc0T9HWdcnOJMwt9ZqBUqr6ZxHtKCE
zzPRZZFx2aNjWdGF/HJo8zQTOxnqD3fuZzy6eiyATpIINRGShFBGzLdkSMYzpqEe
plgdrxKJAdYEEwEIAEACGw8CHgECF4AJCwcICQoEAwECBRUICgMCAxYCABYhBA43
45oGFjoIqWz4UvKQF2wFUOuABQJkQjtYBQkOm9obAAoJEPKQF2wFUOuA3LML+gOW
OW8X10+xMYDiW1/CyzAXdBDGSldyRK+5xBB1rQQBn3O6WGh4rus99td2lO6FK6Ds
gANa/WQMXuRHfhqAvdpeegbJf9L9gVSEKjj4O2Cwv8lPgyWOQK8njmCdKGcnyYt8
qGoox86qlN2MSzox32HGdGzAD5BRZBsTwQ0QRCUCImvDYr2/DdGFEx7GfTcFqVcn
8MIBNIePQbKJBpO8u2ITOI4pdrtQXXJX/w4gv1wsMZJRHXMsY21wFMl1Gy4WAUX2
FlWzEH8PK1tGyM1cg4t6snNwiDz2JHWkc+q6/Q47YetiZ5twt9692WBOdRkDfKel
C2Wh0VO6XmLs0LnPsQltO1OM+e7Nz/w5+ZijfHlE1glqX0/Z1pfuPw0AztnQeqCs
oED94+yPLjx/oQ9xYgifu3zoB+bjooJivne+9fwpyhssBgMBCtzTL1RlSHsfEQ+A
fGtLmNf5aU+RY7U3gJnc5kAL5BJ5UyJimyWuNSJ70COc+kUxBLcNmkNthWvVt4kB
1gQTAQgAQAIbDwIeAQIXgAkLBwgJCgQDAQIFFQgKAwIDFgIAFiEEDjfjmgYWOgip
bPhS8pAXbAVQ64AFAmmrZ5gFCRUJODMACgkQ8pAXbAVQ64DB4Qv9G55F3UZxHV4Q
J+JahdJ0TKRDaagB3lJe45Lv9QLdOViZNLrpnrVXndsg0xjCt7r3MrEs3rP00Qw1
w1g1g8kZNySNyBjSUeYXPneIwSMExdIcnORQQ96HjAVBorovxxU2xRzu/wF07gw5
iwMcTyynfWJzb752wsv82mNIMISBW409p8Oz6++tBYiLTKEWgJ9CmRC2IO5OZAsO
D46J3cb0QDFjRU0hoFIX9AMLYqaRFvlPqNkFM6LFDLUNze8q5lR3tw/u6D/k2laQ
8TuhO3Asa+Lvk6wDAB99PLXg3qmihb0lXDhALheEbkVCF2cBp/Cvo/vvUKmZpOwE
C+e2s2V0Ndx1G3gW0rCCWUIQf78WvdO5bprAlx5DTao8hJejbGeStu18lhksB8/7
ok64UPhGXgWfErQo5DZvDb1U4ox6MnFSRh1rm2C5B1KKFrzBcYxn3XbqEk69AZIY
lNxJcG9reYaa+nm1w15fxsQrBtqowh48eQxNAd0mekJBdd4ySuoLtCxNYXJjIFNj
aG9vbGRlcm1hbiA8aW5mb0BtYXJjc2Nob29sZGVybWFuLm5sPokB1AQTAQgAPgIb
DwIeAQIXgAcLCgcEAwECBhUKCQgLAwIWABYhBA4345oGFjoIqWz4UvKQF2wFUOuA
BQJkQjtZBQkOm9obAAoJEPKQF2wFUOuAcz4L+wfvAk91MopLj39lvkp/LczzhBPv
mdcC2+9McCbzZmHHYLKZhIcNfTXuyv0bTWClBq2K8/Kc/ykh66raqzPV/g9VLVQ2
k4TDEPY5gIxg2D4DCfOR7rpt9Ce/tQILJaBcGEgAPoA9a5H0woAp58Qf45h0DLzN
DjwGXvCKK3bGhg1zmbm6WGWg9RvUE6JFi2fOymC2vle3a5aC4iSTQz1onunudCOo
O+F7J9MgxqgqP80M7c5/PTNH/2T8PRoGkEBNggOPSFLZqq1n3w4fa0WXv1aPMDy1
+KxkAIGWhZqH7WSCoruA7xZySCS+3Z6J8cEhKZMKfjrULBJwH6IZw6XWhNpx9l61
5jJGBLILG40Sq0depwlGmdRD5D2n+xuwulnrQhqwUnm8LaJTjhu8Te0RIqOuQfjP
+kDYarImZylsK3K+tnUswOcueyJvjggXBDszbU9MZlbhiDDUthXJRqimpFD62vSQ
9QI9eLAG8ks4WPU2mC6BSZy81zTfAQUW7+XvJYkB1AQTAQgAPgIbDwIeAQIXgAcL
CgcEAwECBhUKCQgLAwIWABYhBA4345oGFjoIqWz4UvKQF2wFUOuABQJpq2eZBQkV
CTgzAAoJEPKQF2wFUOuA1WoMAIrxLOoTPdLvmSx2LBb5sGPEookG+tp6fWGxtT4t
MKDGRFPmrUoGqg9EMJOuBO7mwo005HGLfz8qFY+og2IJuJFyFug3N8GPFfHXexBt
2IIlGb9ofCT9OWuNqLYQXxLxtoZXQYp8YgsQ3k/rS2GBOkDjeshgk7A4bPVYh6Cf
AphXYMrTKDbPR4kq5mZYA/5JZzpgRmph6qoR8vt+sCYZ8pfL/DigkpVEqfyXTOKJ
iwFyGdNuhJdihW4qIXvzby4pA2Nx7H1tX0Fizp8P8HAY2dglFp893Uoa07AJqVWj
IgffvtnBK7EfB8ZsrOzeGuG9/iGbbztHuDom6EVqRsStKJMs/fgMycpBIfYRzPyv
Jgk4NoBHXWeiLam85hsxbX+XWvQ9fYtFigfkjBbAhHXEL8D5gz0VTQqnRAZU4FTC
1Go4KNYe4AMmjjL/1gb1HPAV4tn/qoFrKHifmrPpkQ6MffQNA+okdP1FNysrz7UB
xt6KXdIC/zZTzQwBnBBdGCic7LgzBFgTZfwWCSsGAQQB2kcPAQEHQHSvyTvq8GKh
3dmWJUWZJKA/bKTHviresJInJ7T+kfVliQIcBBgBCAAmAhsiFiEEDjfjmgYWOgip
bPhS8pAXbAVQ64AFAl1zsPoFCQc6takAal8gBBkWCAAGBQJYE2X8AAoJEHrrkoIX
zyb7jIIBAOgMpi1ThZ5iZd6eGa1gfbcJ5c2u9bnC1RA9bGcx8e6OAPoCHv1kAWFw
p2CVyZCzBimyW85HZyKnKu5tG3lvXi/4DwkQ8pAXbAVQ64A52gwAr1Dy5zLShyuY
QwXeQN6VYka9aqFaEUYKFfpsXZBG+uLrUuZ0+XaAC8TUpG3ij3P14qx+8xBJ8oAl
Oew3isz1MfugpsJcWkMAFeAvwxEMLHo/pZN8HLkuwvMG6v7XxVDndbip0lh2WR2g
Rt+hGqhci79/EADO9llnt75M9+WZ6NQVDcKqKsuVELEfj6KxctaQy86na2CfksYM
GR+5AF32R3za34DwAO24lnm3gbHdudoFfPVTGfpLFcYzcKZPSbShftCbXIh83nsD
BfS9m1bYDB/9tj/1OKxDONLlmOU66DgUuzesdXD0dmx+JkjE+LKJImSXAPwPQEgh
GhPLmUthgfkwYDD71I4Goj343WU4cjEUMJN4Ae+V4n0st4uGRApCkTVGvpqlJro7
qp/jdAj4tmWUhlzR701vdSQGvppEagkRfrFaFWMkN/7IAeVaW34QivyzsDDfvGv3
7tzjZBT3uxVEBEiadgJ5/8MeiQdixAdMGDDkfYqMvQ4rtDrdbwmiiQIcBBgBCAAm
AhsiFiEEDjfjmgYWOgipbPhS8pAXbAVQ64AFAmRCOzQFCQ6X9qUAal8gBBkWCAAG
BQJYE2X8AAoJEHrrkoIXzyb7jIIBAOgMpi1ThZ5iZd6eGa1gfbcJ5c2u9bnC1RA9
bGcx8e6OAPoCHv1kAWFwp2CVyZCzBimyW85HZyKnKu5tG3lvXi/4DwkQ8pAXbAVQ
64C+KwwAnGGTgompueWMmHMFerZQR8jkWQ0ks5hKu0HHJXApXLCydmpzV6eO5TgY
pK5ptc3WzQHYgbldum7CbJfJKku6eTeT6IJE+kH0W9HVUhI4S92BvNYRpWr2fA91
jUruNZ5GbIjoE50h7Ua8d20Hv4e5n9dp4/egaIIAaGs3eZ5G2uSHpVi457K5bTal
+fezQSaf3Z5jq3EBdIcCyZUn/PswQIM5Plw66eM4RfH/1a3CkI4Zb4RCd9fycnXO
XoU/cGH701a4vlpp0BfdmJkz2qbm9dZUZ0+w0Gzt4SzdWduXRGkpgRYTr89ANsSP
ud8y1RTqj8kvU0EheyjLyDpO+5HyFwW6/GpIO+fQWtENmQWsvI4086sdPkCJkHDL
BZjkLnKCtf/SsB9qHR6DnFn2qqkCQBEQ5fn1Kwp3JXsOqy4JSWtWuZZIaC2arfcL
xr+oIEqvjB4NejAaMAyUwzYbX3H/4QORUoXVq6zHQ/4/E2p2QwL9brjCqWTqSUMf
dFPpw1eLiQIcBBgBCAAmAhsiFiEEDjfjmgYWOgipbPhS8pAXbAVQ64AFAmmrZ8YF
CRUFVLQAal8gBBkWCAAGBQJYE2X8AAoJEHrrkoIXzyb7jIIBAOgMpi1ThZ5iZd6e
Ga1gfbcJ5c2u9bnC1RA9bGcx8e6OAPoCHv1kAWFwp2CVyZCzBimyW85HZyKnKu5t
G3lvXi/4DwkQ8pAXbAVQ64AjDwwAjWZDQqFRchvXUdyKl5yHFjHIe/LpCKHazpRI
WuVvFAeDJG0MQKJM3K5pWgDbAC9ruo6OioF3OKqv3XqmaGOgVPpaOL8yTkGrzk5U
hurPBFd5q0m5ob4Ud/LXT1zAOmKKQiNBsNEcmT6kfTp7u8f3PT/+fAvN4cMH4RAc
YMgDmTtgeOrKrXYwAmRognnL2rI1Q+xmnfJmcG2AvfBJ0CL/tI+PjcXinHqede1Z
SGETF/V7xULagr4wAN2zvXALnL6+R+Ygjx9tBImDbDebheKanvq1XGMPRcPKr/IL
0UMkmwIq3LHmn91tbdGNiF/+KjgvDq7WDL3xFC10fm+SAb0XuRu6LSHmr3trvHUE
1MBKBah/N6JpXkW9+xbj8LNGD0SlY1SdwFDZ++g//f6fZ8Rb0cUcrnnH5Cf0p/+N
k7Y1OMgF1ohnijupgNTQ/QOGn2oPtg1B3yIlFK6Y422I1ZBSimZjLLvfsLcgI89F
sKiDqeBecQ4RQ8oO+ycx9PUxlOoXuDgEWA/H+RIKKwYBBAGXVQEFAQEHQIfQE0Sa
EFUQke2pKdQ+MlmqmqJhwZkvVtfqmtaftHg6AwEIB4kBvAQYAQgAJgIbDBYhBA43
45oGFjoIqWz4UvKQF2wFUOuABQJdc7EABQkHPlOsAAoJEPKQF2wFUOuAkiUL+QFX
nWc1Gl88E0b2nba4yhoWhdDb9gHKSZutGHrtV0fMDKRIXMqOXWvYPjymnlYZU75q
VCjqJcN6lKZhc+Pmg6rkiEepcZ4jxygSjfsOeQRInNiV8WsfdeVWVDYRRHe+QG2N
TD9lARk/xQkVAkwPL39xadnKbdi1fQsMi1eCVc534A8d9ycL3scPOD9nfDU2WKgs
wBn3gBg2KdP7bXZfXguEVIanrROohPj/TlaiD23fFLF03xUOmIUAMD9jvf1I7lE0
M/Olwg3yYGeFIV7Xj2VHqj9TD0bFJ4y4p3eu0O9vm67YgX/mzfClYzcT3pJ8EiTn
OpwSyWAJwANdI3gFvjvQQ8Mm8HwdcxV/749v+lchIE+CBaisZMBvDKB9jACg2l19
STKtp3Jg2ibY0Uk0URCL4LUfh2v0j7TKipzGO68WRbXLonwH3knVH2a7Gv5NElK2
fPBSfnLpTnGW5nIsP0HtjMeSHP0gJ9VA+R4Dc/KqIqKl7MzYX4eGtui/uTgj5IkB
vAQYAQgAJgIbDBYhBA4345oGFjoIqWz4UvKQF2wFUOuABQJkQjs1BQkOm5SoAAoJ
EPKQF2wFUOuAsLAL/A4D9mpQJ0BNoCLURoxpwMvqhMmRe0JU4CWmHEPQNVpFyCvE
rRfixyff3VBuERi8dgHoUn9eaaS3CIurhaw02CDqLi9esCqKFkPmH6OIgS1mWmVr
ZCrssK9r3kPyAZ002nUxloWBr3dyjWjAifbfgMAJQRHTDhYsPjWEc5hjjXqM7wCu
BYq/2NHt+DpQTLY2A9gxhkZd4q8zj79aq8khrWfmYq829j72+7UduS5eYrgFkQXN
Kikg7iiFZP0S8BZjmbs3xrpAHrP7k+OznP9pDzCkTuM3WxSDWx42EwIXbO7NN0y/
5xPnkWAhvDs6GjvyhMV7e3KP3LK8GSauX3tWPt7xcG1MFYF34/W4Do3tHo7HN2I+
RuIkRYiBN4xkA6vo1/er4XPT94MyFsRVfqgFXTc/QZT6eQP3uccDt8K/7dpeb19E
88V+sdYFL5U7Z7ipQAyPPybUpWtyAVY6opOFMTXWYzgOZjxngMf3AKCeHfwex6NF
fAu+E+/1txO/Jctn24kBvAQYAQgAJgIbDBYhBA4345oGFjoIqWz4UvKQF2wFUOuA
BQJpq2fIBQkVCPK3AAoJEPKQF2wFUOuAIR8MAMK0scrsvz87GEMNPeI0wEPoM0zh
GvW6aGAEH5XeyJPsyyXoi3M0rfllzHPYNN0ow3r4X9MpTbRVRtu83BAQvZMq33LL
MtFkdUCrfL6/34sGnFhD2Z7B/0uBcTIJxoSDX3PkzNnK1iqMI5xl6P0knKPMg65v
Z6dNSPNx6q+sjUK4xmONkDsUf9Vw5ma43yN5VNDWAvpBQuvT12+tKxlZ+RcGqW0E
YcvUn8LFIkwsMnlHvSmpCgjxR/8S4OFAdAxoR2Oh0B3oP1kJDlXvcXW6TUZfCwbB
/UvOGtI6wk7RW2mv7pXB2OlTjBoQVhwd5j7NyvduTslGcpK/ZuZXAcw+5L5Zzjpk
EXSMIuRSxdixGpKDCUl0BpUnx+FbVe+X7nnGPCkUbU3Saigx1kE9cEU2tjVkS9IQ
QL+ij+j7ChdYZqxZU4i2i9of826v3BBUUrMZkAP/pdxF+U5xGNzBfQb3ySAqlXTT
n3ZQDfFNrkb6YXSRrU5PDoQBeO5BzkMkyJNBYQ==
=p38h
-----END PGP PUBLIC KEY BLOCK-----
